components/Common/Svg/svgs/customWebDevelopment.svg

<svg
  width="90"
  height="90"
  viewBox="0 0 90 90"
  fill="none"
  xmlns="http://www.w3.org/2000/svg"
>
  <circle
    opacity="0.5"
    cx="45"
    cy="45"
    r="45"
    fill="#FFE603"
  ></circle>
  <path
    d="M32.5 57H57.5C58.8807 57 60 55.8807 60 54.5V37C60 35.6193 58.8807 34.5 57.5 34.5H32.5C31.1193 34.5 30 35.6193 30 37L30 54.5C30 55.8807 31.1193 57 32.5 57Z"
    stroke="#161616"
    stroke-width="2"
    stroke-linecap="round"
    stroke-linejoin="round"
  ></path>
  <path
    d="M50 62H40"
    stroke="#161616"
    stroke-width="2"
    stroke-linecap="round"
    stroke-linejoin="round"
  ></path>
  <path
    d="M45 57V62"
    stroke="#161616"
    stroke-width="2"
    stroke-linecap="round"
    stroke-linejoin="round"
  ></path>
  <path
    d="M40 42.625L36.25 45.75L40 48.875"
    stroke="#161616"
    stroke-width="1.5"
    stroke-linecap="round"
    stroke-linejoin="round"
  ></path>
  <path
    d="M50 42.625L53.75 45.75L50 48.875"
    stroke="#161616"
    stroke-width="1.5"
    stroke-linecap="round"
    stroke-linejoin="round"
  ></path>
  <path
    d="M47.5 38.875L42.5 52.625"
    stroke="#161616"
    stroke-width="1.5"
    stroke-linecap="round"
    stroke-linejoin="round"
  ></path>
</svg>

<svg width="90" height="90" viewBox="0 0 90 90" fill="none" xmlns="http://www.w3.org/2000/svg"><circle opacity=".5" cx="45" cy="45" r="45" fill="#FFE603"/><path d="M32.5 57h25a2.5 2.5 0 0 0 2.5-2.5V37a2.5 2.5 0 0 0-2.5-2.5h-25A2.5 2.5 0 0 0 30 37v17.5a2.5 2.5 0 0 0 2.5 2.5ZM50 62H40M45 57v5" stroke="#161616" stroke-width="2" stroke-linecap="round" stroke-linejoin="round"/><path d="m40 42.625-3.75 3.125L40 48.875M50 42.625l3.75 3.125L50 48.875M47.5 38.875l-5 13.75" stroke="#161616" stroke-width="1.5" stroke-linecap="round" stroke-linejoin="round"/></svg>
